X:177
T:K\"aringtr\"atan
R:sl\"angpolska
H:efter Pelle Fors, upptecknad av R L R\"a\"af 1888. Jfr #19, #20
A:\"Osterg\"otland
Z:id:hn-sp-177
M:3/4
L:1/16
K:A
c2e2 efec dcdf | f2e2 efec edcB | c2e2 efec dcdf | f3e e4 z4 :|
|: c2c2 A2A2 E2E2 | C2CA, B,A,B,D CDCB, | c2c2 A2A2 E2E2 |
C2CA, B,A,B,D CDCB, | c2cd B2Bc AGAB | cABG G3A A4 :|
<end>
<start>
